src/img/icons/speech.svg

<svg width="32" height="32" viewBox="0 0 32 32" fill="none" xmlns="http://www.w3.org/2000/svg">
<path d="M7.84216 23.5263L4.82034 26.5481C4.48348 26.885 4.09588 26.9621 3.65753 26.7794C3.21918 26.5967 3 26.2673 3 25.7911V5.14021C3 4.55225 3.20971 4.04855 3.62913 3.62913C4.04855 3.20971 4.55225 3 5.14021 3H26.8598C27.4478 3 27.9514 3.20971 28.3709 3.62913C28.7903 4.04855 29 4.55225 29 5.14021V21.3861C29 21.9741 28.7903 22.4778 28.3709 22.8972C27.9514 23.3166 27.4478 23.5263 26.8598 23.5263H7.84216ZM7.09842 21.8069H26.8598C26.9649 21.8069 27.0614 21.7631 27.1492 21.6755C27.2368 21.5877 27.2806 21.4912 27.2806 21.3861V5.14021C27.2806 5.03507 27.2368 4.9386 27.1492 4.85079C27.0614 4.76321 26.9649 4.71942 26.8598 4.71942H5.14021C5.03507 4.71942 4.9386 4.76321 4.85079 4.85079C4.76321 4.9386 4.71942 5.03507 4.71942 5.14021V24.2807L7.09842 21.8069ZM10.2947 14.4229C10.6297 14.4229 10.9153 14.3049 11.1513 14.0688C11.3874 13.8328 11.5054 13.5472 11.5054 13.2122C11.5054 12.8771 11.3874 12.5916 11.1513 12.3556C10.9153 12.1197 10.6297 12.0018 10.2947 12.0018C9.95375 12.0018 9.66672 12.1197 9.43363 12.3556C9.20077 12.5916 9.08434 12.8771 9.08434 13.2122C9.08434 13.5472 9.20077 13.8328 9.43363 14.0688C9.66672 14.3049 9.95375 14.4229 10.2947 14.4229ZM16.051 14.4229C16.386 14.4229 16.6716 14.3049 16.9076 14.0688C17.1434 13.8328 17.2613 13.5472 17.2613 13.2122C17.2613 12.8771 17.1434 12.5916 16.9076 12.3556C16.6716 12.1197 16.386 12.0018 16.051 12.0018C15.7159 12.0018 15.4304 12.1197 15.1943 12.3556C14.9583 12.5916 14.8403 12.8771 14.8403 13.2122C14.8403 13.5472 14.9583 13.8328 15.1943 14.0688C15.4304 14.3049 15.7159 14.4229 16.051 14.4229ZM21.6913 14.4229C22.0263 14.4229 22.3118 14.3049 22.5479 14.0688C22.7837 13.8328 22.9016 13.5472 22.9016 13.2122C22.9016 12.8771 22.7837 12.5916 22.5479 12.3556C22.3118 12.1197 22.0263 12.0018 21.6913 12.0018C21.3562 12.0018 21.0707 12.1197 20.8346 12.3556C20.5986 12.5916 20.4806 12.8771 20.4806 13.2122C20.4806 13.5472 20.5986 13.8328 20.8346 14.0688C21.0707 14.3049 21.3562 14.4229 21.6913 14.4229Z" fill="#131212"/>
</svg>

<svg xmlns="http://www.w3.org/2000/svg" viewBox="0 0 32 32">
  <path fill="currentColor" d="M7.842 23.526 4.82 26.548c-.337.337-.724.414-1.162.231-.439-.182-.658-.512-.658-.988V5.141c0-.589.21-1.092.63-1.512A2.056 2.056 0 0 1 5.14 3h21.72c.588 0 1.091.21 1.51.63.42.419.63.922.63 1.51v16.246a2.06 2.06 0 0 1-.63 1.511c-.419.42-.922.63-1.51.63H7.842Zm-.744-1.72H26.86a.403.403 0 0 0 .29-.13.403.403 0 0 0 .13-.29V5.14a.403.403 0 0 0-.13-.29.403.403 0 0 0-.29-.13H5.14a.403.403 0 0 0-.29.13.403.403 0 0 0-.13.29v19.14l2.378-2.473Zm3.197-7.383c.335 0 .62-.118.856-.354s.354-.522.354-.857c0-.335-.118-.62-.354-.856a1.167 1.167 0 0 0-.856-.354c-.341 0-.628.118-.861.354-.233.236-.35.521-.35.856 0 .335.117.62.35.857.233.236.52.354.86.354Zm5.756 0c.335 0 .62-.118.857-.354a1.17 1.17 0 0 0 .353-.857c0-.335-.118-.62-.353-.856a1.167 1.167 0 0 0-.857-.354c-.335 0-.62.118-.857.354a1.167 1.167 0 0 0-.354.856c0 .335.118.62.354.857.236.236.522.354.857.354Zm5.64 0c.335 0 .62-.118.857-.354.236-.236.354-.522.354-.857 0-.335-.118-.62-.354-.856a1.167 1.167 0 0 0-.857-.354c-.335 0-.62.118-.856.354a1.167 1.167 0 0 0-.354.856c0 .335.118.62.354.857.236.236.521.354.856.354Z"/>
</svg>
